images/50406970.svg

<?xml version="1.0" encoding="UTF-8"?>
<svg xmlns="http://www.w3.org/2000/svg" xmlns:xlink="http://www.w3.org/1999/xlink" width="300pt" height="300pt" viewBox="0 0 300 300" version="1.1">
<defs>
<g>
<symbol overflow="visible" id="glyph0-0">
<path style="stroke:none;" d="M 0.453125 1.59375 L 0.453125 -6.34375 L 4.953125 -6.34375 L 4.953125 1.59375 Z M 0.953125 1.09375 L 4.453125 1.09375 L 4.453125 -5.84375 L 0.953125 -5.84375 Z M 0.953125 1.09375 "/>
</symbol>
<symbol overflow="visible" id="glyph0-1">
<path style="stroke:none;" d="M 3.546875 -5.953125 C 2.898438 -5.953125 2.382812 -5.710938 2 -5.234375 C 1.625 -4.753906 1.4375 -4.101562 1.4375 -3.28125 C 1.4375 -2.445312 1.625 -1.789062 2 -1.3125 C 2.382812 -0.832031 2.898438 -0.59375 3.546875 -0.59375 C 4.191406 -0.59375 4.703125 -0.832031 5.078125 -1.3125 C 5.453125 -1.789062 5.640625 -2.445312 5.640625 -3.28125 C 5.640625 -4.101562 5.453125 -4.753906 5.078125 -5.234375 C 4.703125 -5.710938 4.191406 -5.953125 3.546875 -5.953125 Z M 3.546875 -6.6875 C 4.460938 -6.6875 5.195312 -6.375 5.75 -5.75 C 6.300781 -5.132812 6.578125 -4.3125 6.578125 -3.28125 C 6.578125 -2.238281 6.300781 -1.410156 5.75 -0.796875 C 5.195312 -0.179688 4.460938 0.125 3.546875 0.125 C 2.617188 0.125 1.878906 -0.179688 1.328125 -0.796875 C 0.773438 -1.410156 0.5 -2.238281 0.5 -3.28125 C 0.5 -4.3125 0.773438 -5.132812 1.328125 -5.75 C 1.878906 -6.375 2.617188 -6.6875 3.546875 -6.6875 Z M 3.546875 -6.6875 "/>
</symbol>
<symbol overflow="visible" id="glyph0-2">
<path style="stroke:none;" d="M 0.890625 -6.5625 L 2.078125 -6.5625 L 4.984375 -1.078125 L 4.984375 -6.5625 L 5.84375 -6.5625 L 5.84375 0 L 4.65625 0 L 1.75 -5.484375 L 1.75 0 L 0.890625 0 Z M 0.890625 -6.5625 "/>
</symbol>
<symbol overflow="visible" id="glyph0-3">
<path style="stroke:none;" d="M 0.890625 -6.5625 L 1.765625 -6.5625 L 1.765625 -3.875 L 5 -3.875 L 5 -6.5625 L 5.890625 -6.5625 L 5.890625 0 L 5 0 L 5 -3.125 L 1.765625 -3.125 L 1.765625 0 L 0.890625 0 Z M 0.890625 -6.5625 "/>
</symbol>
</g>
</defs>
<g id="surface8601">
<rect x="0" y="0" width="300" height="300" style="fill:rgb(100%,100%,100%);fill-opacity:1;stroke:none;"/>
<path style="fill:none;stroke-width:1.2;stroke-linecap:butt;stroke-linejoin:miter;stroke:rgb(100%,0%,0%);stroke-opacity:1;stroke-miterlimit:10;" d="M 258.484375 149.8125 L 261.617188 161.960938 "/>
<path style="fill:none;stroke-width:1.2;stroke-linecap:butt;stroke-linejoin:miter;stroke:rgb(0%,0%,0%);stroke-opacity:1;stroke-miterlimit:10;" d="M 261.617188 161.960938 L 264.75 174.113281 "/>
<path style="fill:none;stroke-width:1.2;stroke-linecap:butt;stroke-linejoin:miter;stroke:rgb(100%,0%,0%);stroke-opacity:1;stroke-miterlimit:10;" d="M 258.484375 149.8125 L 246.394531 146.449219 "/>
<path style="fill:none;stroke-width:1.2;stroke-linecap:butt;stroke-linejoin:miter;stroke:rgb(0%,0%,0%);stroke-opacity:1;stroke-miterlimit:10;" d="M 246.394531 146.449219 L 234.308594 143.089844 "/>
<path style=" stroke:none;fill-rule:nonzero;fill:rgb(100%,100%,100%);fill-opacity:1;" d="M 254.484375 144.3125 L 262.484375 144.3125 L 262.484375 155.3125 L 254.484375 155.3125 Z M 254.484375 144.3125 "/>
<g style="fill:rgb(100%,0%,0%);fill-opacity:1;">
  <use xlink:href="#glyph0-1" x="254.484375" y="152.975586"/>
</g>
<path style="fill:none;stroke-width:1.2;stroke-linecap:butt;stroke-linejoin:miter;stroke:rgb(0%,0%,0%);stroke-opacity:1;stroke-miterlimit:10;" d="M 234.308594 143.089844 L 216.394531 160.664062 "/>
<path style="fill:none;stroke-width:1.2;stroke-linecap:butt;stroke-linejoin:miter;stroke:rgb(0%,0%,0%);stroke-opacity:1;stroke-miterlimit:10;" d="M 228.378906 140.632812 L 214.050781 154.695312 "/>
<path style="fill:none;stroke-width:1.2;stroke-linecap:butt;stroke-linejoin:miter;stroke:rgb(0%,0%,0%);stroke-opacity:1;stroke-miterlimit:10;" d="M 228.039062 118.789062 L 234.308594 143.089844 "/>
<path style="fill:none;stroke-width:1.2;stroke-linecap:butt;stroke-linejoin:miter;stroke:rgb(0%,0%,0%);stroke-opacity:1;stroke-miterlimit:10;" d="M 216.394531 160.664062 L 192.21875 153.941406 "/>
<path style="fill:none;stroke-width:1.2;stroke-linecap:butt;stroke-linejoin:miter;stroke:rgb(0%,0%,0%);stroke-opacity:1;stroke-miterlimit:10;" d="M 192.21875 153.941406 L 185.953125 129.644531 "/>
<path style="fill:none;stroke-width:1.2;stroke-linecap:butt;stroke-linejoin:miter;stroke:rgb(0%,0%,0%);stroke-opacity:1;stroke-miterlimit:10;" d="M 197.308594 150.039062 L 192.296875 130.597656 "/>
<path style="fill:none;stroke-width:1.2;stroke-linecap:butt;stroke-linejoin:miter;stroke:rgb(0%,0%,0%);stroke-opacity:1;stroke-miterlimit:10;" d="M 192.21875 153.941406 L 174.308594 171.519531 "/>
<path style="fill:none;stroke-width:1.2;stroke-linecap:butt;stroke-linejoin:miter;stroke:rgb(0%,0%,0%);stroke-opacity:1;stroke-miterlimit:10;" d="M 185.953125 129.644531 L 203.863281 112.066406 "/>
<path style="fill:none;stroke-width:1.2;stroke-linecap:butt;stroke-linejoin:miter;stroke:rgb(0%,0%,0%);stroke-opacity:1;stroke-miterlimit:10;" d="M 203.863281 112.066406 L 228.039062 118.789062 "/>
<path style="fill:none;stroke-width:1.2;stroke-linecap:butt;stroke-linejoin:miter;stroke:rgb(0%,0%,0%);stroke-opacity:1;stroke-miterlimit:10;" d="M 204.699219 118.429688 L 224.042969 123.804688 "/>
<path style="fill:none;stroke-width:1.2;stroke-linecap:butt;stroke-linejoin:miter;stroke:rgb(0%,0%,0%);stroke-opacity:1;stroke-miterlimit:10;" d="M 174.308594 171.519531 L 150.128906 164.796875 "/>
<path style="fill:none;stroke-width:1.2;stroke-linecap:butt;stroke-linejoin:miter;stroke:rgb(0%,0%,0%);stroke-opacity:1;stroke-miterlimit:10;" d="M 152.988281 164.058594 L 149.855469 151.910156 "/>
<path style="fill:none;stroke-width:1.2;stroke-linecap:butt;stroke-linejoin:miter;stroke:rgb(100%,0%,0%);stroke-opacity:1;stroke-miterlimit:10;" d="M 149.855469 151.910156 L 146.722656 139.757812 "/>
<path style="fill:none;stroke-width:1.2;stroke-linecap:butt;stroke-linejoin:miter;stroke:rgb(0%,0%,0%);stroke-opacity:1;stroke-miterlimit:10;" d="M 147.273438 165.53125 L 144.140625 153.382812 "/>
<path style="fill:none;stroke-width:1.2;stroke-linecap:butt;stroke-linejoin:miter;stroke:rgb(100%,0%,0%);stroke-opacity:1;stroke-miterlimit:10;" d="M 144.140625 153.382812 L 141.007812 141.234375 "/>
<path style="fill:none;stroke-width:1.2;stroke-linecap:butt;stroke-linejoin:miter;stroke:rgb(0%,0%,0%);stroke-opacity:1;stroke-miterlimit:10;" d="M 150.128906 164.796875 L 141.175781 173.585938 "/>
<path style="fill:none;stroke-width:1.2;stroke-linecap:butt;stroke-linejoin:miter;stroke:rgb(0%,0%,100%);stroke-opacity:1;stroke-miterlimit:10;" d="M 141.175781 173.585938 L 132.21875 182.371094 "/>
<path style=" stroke:none;fill-rule:nonzero;fill:rgb(100%,100%,100%);fill-opacity:1;" d="M 139.863281 134.996094 L 147.863281 134.996094 L 147.863281 145.996094 L 139.863281 145.996094 Z M 139.863281 134.996094 "/>
<g style="fill:rgb(100%,0%,0%);fill-opacity:1;">
  <use xlink:href="#glyph0-1" x="139.863281" y="143.65918"/>
</g>
<path style="fill:none;stroke-width:1.2;stroke-linecap:butt;stroke-linejoin:miter;stroke:rgb(0%,0%,100%);stroke-opacity:1;stroke-miterlimit:10;" d="M 132.21875 182.371094 L 120.132812 179.011719 "/>
<path style="fill:none;stroke-width:1.2;stroke-linecap:butt;stroke-linejoin:miter;stroke:rgb(0%,0%,0%);stroke-opacity:1;stroke-miterlimit:10;" d="M 120.132812 179.011719 L 108.042969 175.648438 "/>
<path style=" stroke:none;fill-rule:nonzero;fill:rgb(100%,100%,100%);fill-opacity:1;" d="M 125.21875 176.871094 L 139.21875 176.871094 L 139.21875 187.871094 L 125.21875 187.871094 Z M 125.21875 176.871094 "/>
<g style="fill:rgb(0%,0%,100%);fill-opacity:1;">
  <use xlink:href="#glyph0-2" x="125.21875" y="185.53418"/>
  <use xlink:href="#glyph0-3" x="132.196289" y="185.53418"/>
</g>
<path style="fill:none;stroke-width:1.2;stroke-linecap:butt;stroke-linejoin:miter;stroke:rgb(0%,0%,0%);stroke-opacity:1;stroke-miterlimit:10;" d="M 108.042969 175.648438 L 98.21875 183.453125 "/>
<path style="fill:none;stroke-width:1.2;stroke-linecap:butt;stroke-linejoin:miter;stroke:rgb(0%,0%,100%);stroke-opacity:1;stroke-miterlimit:10;" d="M 98.21875 183.453125 L 88.394531 191.257812 "/>
<path style="fill:none;stroke-width:1.2;stroke-linecap:butt;stroke-linejoin:miter;stroke:rgb(0%,0%,0%);stroke-opacity:1;stroke-miterlimit:10;" d="M 99.269531 152.136719 L 108.042969 175.648438 "/>
<path style="fill:none;stroke-width:1.2;stroke-linecap:butt;stroke-linejoin:miter;stroke:rgb(0%,0%,0%);stroke-opacity:1;stroke-miterlimit:10;" d="M 94.617188 156.550781 L 101.632812 175.363281 "/>
<path style="fill:none;stroke-width:1.2;stroke-linecap:butt;stroke-linejoin:miter;stroke:rgb(0%,0%,100%);stroke-opacity:1;stroke-miterlimit:10;" d="M 88.394531 191.257812 L 67.476562 177.390625 "/>
<path style=" stroke:none;fill-rule:nonzero;fill:rgb(100%,100%,100%);fill-opacity:1;" d="M 81.394531 185.757812 L 95.394531 185.757812 L 95.394531 196.757812 L 81.394531 196.757812 Z M 81.394531 185.757812 "/>
<g style="fill:rgb(0%,0%,100%);fill-opacity:1;">
  <use xlink:href="#glyph0-2" x="81.394531" y="194.420898"/>
  <use xlink:href="#glyph0-3" x="88.37207" y="194.420898"/>
</g>
<path style="fill:none;stroke-width:1.2;stroke-linecap:butt;stroke-linejoin:miter;stroke:rgb(0%,0%,100%);stroke-opacity:1;stroke-miterlimit:10;" d="M 67.476562 177.390625 L 70.839844 165.304688 "/>
<path style="fill:none;stroke-width:1.2;stroke-linecap:butt;stroke-linejoin:miter;stroke:rgb(0%,0%,0%);stroke-opacity:1;stroke-miterlimit:10;" d="M 70.839844 165.304688 L 74.199219 153.214844 "/>
<path style="fill:none;stroke-width:1.2;stroke-linecap:butt;stroke-linejoin:miter;stroke:rgb(0%,0%,100%);stroke-opacity:1;stroke-miterlimit:10;" d="M 73.835938 176.554688 L 76.527344 166.886719 "/>
<path style="fill:none;stroke-width:1.2;stroke-linecap:butt;stroke-linejoin:miter;stroke:rgb(0%,0%,0%);stroke-opacity:1;stroke-miterlimit:10;" d="M 76.527344 166.886719 L 79.214844 157.214844 "/>
<path style=" stroke:none;fill-rule:nonzero;fill:rgb(100%,100%,100%);fill-opacity:1;" d="M 64.476562 171.890625 L 71.476562 171.890625 L 71.476562 182.890625 L 64.476562 182.890625 Z M 64.476562 171.890625 "/>
<g style="fill:rgb(0%,0%,100%);fill-opacity:1;">
  <use xlink:href="#glyph0-2" x="64.476562" y="180.553711"/>
</g>
<path style="fill:none;stroke-width:1.2;stroke-linecap:butt;stroke-linejoin:miter;stroke:rgb(0%,0%,0%);stroke-opacity:1;stroke-miterlimit:10;" d="M 74.199219 153.214844 L 99.269531 152.136719 "/>
<path style="fill:none;stroke-width:1.2;stroke-linecap:butt;stroke-linejoin:miter;stroke:rgb(0%,0%,0%);stroke-opacity:1;stroke-miterlimit:10;" d="M 74.199219 153.214844 L 58.59375 133.566406 "/>
<path style="fill:none;stroke-width:1.2;stroke-linecap:butt;stroke-linejoin:miter;stroke:rgb(0%,0%,0%);stroke-opacity:1;stroke-miterlimit:10;" d="M 58.59375 133.566406 L 35.25 124.351562 "/>
<path style="fill:none;stroke-width:1.2;stroke-linecap:butt;stroke-linejoin:miter;stroke:rgb(0%,0%,0%);stroke-opacity:1;stroke-miterlimit:10;" d="M 54.898438 108.742188 L 58.59375 133.566406 "/>
<path style="fill:none;stroke-width:1.2;stroke-linecap:butt;stroke-linejoin:miter;stroke:rgb(0%,0%,0%);stroke-opacity:1;stroke-miterlimit:10;" d="M 35.25 124.351562 L 54.898438 108.742188 "/>
</g>
</svg>

<svg xmlns="http://www.w3.org/2000/svg" xmlns:xlink="http://www.w3.org/1999/xlink" width="300pt" height="300pt" viewBox="0 0 300 300"><defs><symbol overflow="visible"><path d="M.453 1.594v-7.938h4.5v7.938zm.5-.5h3.5v-6.938h-3.5zm0 0"/></symbol><symbol overflow="visible" id="a"><path d="M3.547-5.953c-.65 0-1.164.242-1.547.72-.375.48-.563 1.13-.563 1.952 0 .835.188 1.49.563 1.967.383.48.898.72 1.547.72.644 0 1.156-.24 1.53-.72.376-.476.564-1.132.564-1.968 0-.822-.187-1.474-.562-1.954-.375-.477-.887-.72-1.53-.72zm0-.734c.914 0 1.648.312 2.203.937.55.617.828 1.438.828 2.47 0 1.042-.277 1.87-.828 2.483-.555.617-1.29.922-2.203.922-.93 0-1.668-.305-2.22-.922C.774-1.41.5-2.237.5-3.28c0-1.033.273-1.853.828-2.47.55-.625 1.29-.938 2.22-.938zm0 0"/></symbol><symbol overflow="visible" id="b"><path d="M.89-6.563H2.08l2.906 5.485v-5.484h.86V0H4.656L1.75-5.484V0H.89zm0 0"/></symbol><symbol overflow="visible" id="c"><path d="M.89-6.563h.876v2.688H5v-2.688h.89V0H5v-3.125H1.766V0H.89zm0 0"/></symbol></defs><g><path fill="#fff" d="M0 0h300v300H0z"/><path d="M258.484 149.813l3.133 12.148" stroke-width="1.2" stroke="#f00" stroke-miterlimit="10" fill="none"/><path d="M261.617 161.96l3.133 12.153" stroke-width="1.2" stroke="#000" stroke-miterlimit="10" fill="none"/><path d="M258.484 149.813l-12.09-3.364" stroke-width="1.2" stroke="#f00" stroke-miterlimit="10" fill="none"/><path d="M246.395 146.45l-12.086-3.36" stroke-width="1.2" stroke="#000" stroke-miterlimit="10" fill="none"/><path d="M254.484 144.313h8v11h-8zm0 0" fill="#fff"/><use xlink:href="#a" x="254.484" y="152.976" fill="#f00"/><path d="M234.31 143.09l-17.915 17.574M228.38 140.633l-14.33 14.062M228.04 118.79l6.27 24.3M216.395 160.664l-24.176-6.723M192.22 153.94l-6.267-24.295M197.31 150.04l-5.013-19.442M192.22 153.94l-17.91 17.58M185.953 129.645l17.91-17.58M203.863 112.066l24.176 6.723M204.7 118.43l19.343 5.375M174.31 171.52l-24.18-6.723M152.988 164.06l-3.133-12.15" stroke-width="1.2" stroke="#000" stroke-miterlimit="10" fill="none"/><path d="M149.855 151.91l-3.132-12.152" stroke-width="1.2" stroke="#f00" stroke-miterlimit="10" fill="none"/><path d="M147.273 165.53l-3.132-12.147" stroke-width="1.2" stroke="#000" stroke-miterlimit="10" fill="none"/><path d="M144.14 153.383l-3.132-12.15" stroke-width="1.2" stroke="#f00" stroke-miterlimit="10" fill="none"/><path d="M150.13 164.797l-8.954 8.79" stroke-width="1.2" stroke="#000" stroke-miterlimit="10" fill="none"/><path d="M141.176 173.586l-8.957 8.785" stroke-width="1.2" stroke="#00f" stroke-miterlimit="10" fill="none"/><path d="M139.863 134.996h8v11h-8zm0 0" fill="#fff"/><use xlink:href="#a" x="139.863" y="143.659" fill="#f00"/><path d="M132.22 182.37l-12.087-3.358" stroke-width="1.2" stroke="#00f" stroke-miterlimit="10" fill="none"/><path d="M120.133 179.012l-12.09-3.364" stroke-width="1.2" stroke="#000" stroke-miterlimit="10" fill="none"/><path d="M125.22 176.87h14v11h-14zm0 0" fill="#fff"/><g fill="#00f"><use xlink:href="#b" x="125.219" y="185.534"/><use xlink:href="#c" x="132.196" y="185.534"/></g><path d="M108.043 175.648l-9.824 7.805" stroke-width="1.2" stroke="#000" stroke-miterlimit="10" fill="none"/><path d="M98.22 183.453l-9.825 7.805" stroke-width="1.2" stroke="#00f" stroke-miterlimit="10" fill="none"/><path d="M99.27 152.137l8.773 23.51M94.617 156.55l7.016 18.813" stroke-width="1.2" stroke="#000" stroke-miterlimit="10" fill="none"/><path d="M88.395 191.258L67.477 177.39" stroke-width="1.2" stroke="#00f" stroke-miterlimit="10" fill="none"/><path d="M81.395 185.758h14v11h-14zm0 0" fill="#fff"/><g fill="#00f"><use xlink:href="#b" x="81.395" y="194.421"/><use xlink:href="#c" x="88.372" y="194.421"/></g><path d="M67.477 177.39l3.363-12.085" stroke-width="1.2" stroke="#00f" stroke-miterlimit="10" fill="none"/><path d="M70.84 165.305l3.36-12.09" stroke-width="1.2" stroke="#000" stroke-miterlimit="10" fill="none"/><path d="M73.836 176.555l2.69-9.668" stroke-width="1.2" stroke="#00f" stroke-miterlimit="10" fill="none"/><path d="M76.527 166.887l2.688-9.672" stroke-width="1.2" stroke="#000" stroke-miterlimit="10" fill="none"/><path d="M64.477 171.89h7v11h-7zm0 0" fill="#fff"/><use xlink:href="#b" x="64.477" y="180.554" fill="#00f"/><path d="M74.2 153.215l25.07-1.078M74.2 153.215l-15.606-19.65M58.594 133.566l-23.344-9.214M54.898 108.742l3.696 24.824M35.25 124.352l19.648-15.61" stroke-width="1.2" stroke="#000" stroke-miterlimit="10" fill="none"/></g></svg>
